gnome/icons/Varda/apps/scalable/multimedia-photo-viewer.svg

<?xml version="1.0" encoding="UTF-8" standalone="no"?>
<svg
   xmlns:dc="http://purl.org/dc/elements/1.1/"
   xmlns:cc="http://creativecommons.org/ns#"
   xmlns:rdf="http://www.w3.org/1999/02/22-rdf-syntax-ns#"
   xmlns:svg="http://www.w3.org/2000/svg"
   xmlns="http://www.w3.org/2000/svg"
   xmlns:sodipodi="http://sodipodi.sourceforge.net/DTD/sodipodi-0.dtd"
   xmlns:inkscape="http://www.inkscape.org/namespaces/inkscape"
   width="64px"
   height="64px"
   viewBox="0 0 64 64"
   version="1.1"
   id="svg43"
   sodipodi:docname="multimedia-photo-viewer.svg"
   inkscape:version="1.0.2 (e86c870879, 2021-01-15)">
  <metadata
     id="metadata49">
    <rdf:RDF>
      <cc:Work
         rdf:about="">
        <dc:format>image/svg+xml</dc:format>
        <dc:type
           rdf:resource="http://purl.org/dc/dcmitype/StillImage" />
      </cc:Work>
    </rdf:RDF>
  </metadata>
  <defs
     id="defs47" />
  <sodipodi:namedview
     pagecolor="#ffffff"
     bordercolor="#666666"
     borderopacity="1"
     objecttolerance="10"
     gridtolerance="10"
     guidetolerance="10"
     inkscape:pageopacity="0"
     inkscape:pageshadow="2"
     inkscape:window-width="2560"
     inkscape:window-height="1403"
     id="namedview45"
     showgrid="false"
     inkscape:zoom="15.75"
     inkscape:cx="32"
     inkscape:cy="32"
     inkscape:window-x="0"
     inkscape:window-y="0"
     inkscape:window-maximized="1"
     inkscape:current-layer="surface1" />
  <g
     id="surface1">
    <path
       style="fill:#d0ebee;fill-opacity:1;fill-rule:nonzero;stroke:none"
       d="m 31.75,3.144531 c 16.074219,0 29.105469,13.03125 29.105469,29.105469 0,16.074219 -13.03125,29.105469 -29.105469,29.105469 C 15.675781,61.355469 2.644531,48.324219 2.644531,32.25 2.644531,16.175781 15.675781,3.144531 31.75,3.144531 Z m 0,0"
       id="path2" />
    <path
       style="fill:#0c0e11;fill-opacity:1;fill-rule:nonzero;stroke:none"
       d="m 31.75,19.019531 c 7.304688,0 13.230469,5.925781 13.230469,13.230469 0,7.304688 -5.925781,13.230469 -13.230469,13.230469 -7.304688,0 -13.230469,-5.925781 -13.230469,-13.230469 0,-7.304688 5.925781,-13.230469 13.230469,-13.230469 z m 0,0"
       id="path4" />
    <path
       style="fill:#733447;fill-opacity:1;fill-rule:nonzero;stroke:none"
       d="M 14.863281,15.492188 C 8.234375,22.121094 6.320312,31.625 9.121094,39.914062 L 39.285156,9.75 C 30.996094,6.949219 21.492188,8.863281 14.863281,15.492188 Z m 0,0"
       id="path6" />
    <path
       style="fill:#733447;fill-opacity:1;fill-rule:nonzero;stroke:none"
       d="m 7.957031,32.339844 c 0,9.375 5.367188,17.449218 13.210938,21.332031 V 11.011719 C 13.324219,14.894531 7.957031,22.96875 7.957031,32.339844 Z m 0,0"
       id="path8" />
    <path
       style="fill:#733447;fill-opacity:1;fill-rule:nonzero;stroke:none"
       d="m 14.992188,49.136719 c 6.628906,6.628906 16.132812,8.542969 24.421874,5.742187 L 9.25,24.714844 c -2.800781,8.289062 -0.886719,17.792968 5.742188,24.421875 z m 0,0"
       id="path10" />
    <path
       style="fill:#733447;fill-opacity:1;fill-rule:nonzero;stroke:none"
       d="m 31.839844,56.042969 c 9.375,0 17.449218,-5.367188 21.332031,-13.210938 H 10.511719 c 3.882812,7.84375 11.957031,13.210938 21.328125,13.210938 z m 0,0"
       id="path12" />
    <path
       style="fill:#733447;fill-opacity:1;fill-rule:nonzero;stroke:none"
       d="M 48.636719,49.007812 C 55.265625,42.378906 57.179688,32.875 54.378906,24.585938 L 24.214844,54.75 c 8.289062,2.800781 17.792968,0.886719 24.421875,-5.742188 z m 0,0"
       id="path14" />
    <path
       style="fill:#733447;fill-opacity:1;fill-rule:nonzero;stroke:none"
       d="m 55.542969,32.160156 c 0,-9.375 -5.367188,-17.449218 -13.210938,-21.332031 V 53.488281 C 50.175781,49.605469 55.542969,41.53125 55.542969,32.160156 Z m 0,0"
       id="path16" />
    <path
       style="fill:#733447;fill-opacity:1;fill-rule:nonzero;stroke:none"
       d="m 31.683594,8.375 c -2.566406,0 -5.136719,0.414062 -7.597656,1.246094 l 0.09766,0.09375 C 29.078125,8.085938 34.394531,8.097656 39.285156,9.75 L 31.75,17.28125 54.25,39.785156 C 57.050781,31.496094 55.136719,21.992188 48.507812,15.363281 43.847656,10.703125 37.765625,8.371094 31.683594,8.375 Z m 0,0"
       id="path18" />
    <path
       style="fill:#733447;fill-opacity:1;fill-rule:nonzero;stroke:none"
       d="m 31.660156,8.457031 c -9.375,0 -17.449218,5.367188 -21.332031,13.210938 h 0.06641 C 11.511719,19.441406 13,17.351562 14.863281,15.492188 21.492188,8.863281 30.996094,6.949219 39.285156,9.75 L 27.367188,21.667969 H 52.988281 C 49.105469,13.824219 41.03125,8.457031 31.660156,8.457031 Z m 0,0"
       id="path20" />
    <path
       style="fill:#0c0e11;fill-opacity:1;fill-rule:nonzero;stroke:none"
       d="m 28.027344,21.003906 -0.660156,0.664063 h 25.621093 c -0.109375,-0.222657 -0.222656,-0.445313 -0.339843,-0.664063 z m 0,0"
       id="path22" />
    <path
       style="fill:#2e3436;fill-opacity:1;fill-rule:nonzero;stroke:none"
       d="m 31.75,24.3125 c 4.382812,0 7.9375,3.554688 7.9375,7.9375 0,4.382812 -3.554688,7.9375 -7.9375,7.9375 -4.382812,0 -7.9375,-3.554688 -7.9375,-7.9375 0,-4.382812 3.554688,-7.9375 7.9375,-7.9375 z m 0,0"
       id="path24" />
    <path
       style="fill:#0c0e11;fill-opacity:1;fill-rule:nonzero;stroke:none"
       d="m 21.167969,26.929688 v 0.9375 L 39.285156,9.75 C 39.050781,9.667969 38.8125,9.59375 38.574219,9.523438 Z m 0,0"
       id="path26" />
    <path
       style="fill:#0c0e11;fill-opacity:1;fill-rule:nonzero;stroke:none"
       d="m 20.503906,35.972656 0.664063,0.660156 V 11.011719 c -0.222657,0.109375 -0.445313,0.222656 -0.664063,0.339843 z m 0,0"
       id="path28" />
    <path
       style="fill:#0c0e11;fill-opacity:1;fill-rule:nonzero;stroke:none"
       d="m 26.429688,42.832031 h 0.9375 L 9.25,24.714844 C 9.167969,24.949219 9.09375,25.1875 9.023438,25.425781 Z m 0,0"
       id="path30" />
    <path
       style="fill:#0c0e11;fill-opacity:1;fill-rule:nonzero;stroke:none"
       d="m 35.472656,43.496094 0.660156,-0.664063 H 10.511719 c 0.109375,0.222657 0.222656,0.445313 0.339843,0.664063 z m 0,0"
       id="path32" />
    <path
       style="fill:#0c0e11;fill-opacity:1;fill-rule:nonzero;stroke:none"
       d="m 42.332031,37.570312 v -0.9375 L 24.214844,54.75 c 0.234375,0.08203 0.472656,0.15625 0.710937,0.226562 z m 0,0"
       id="path34" />
    <path
       style="fill:#0c0e11;fill-opacity:1;fill-rule:nonzero;stroke:none"
       d="m 42.996094,28.527344 -0.664063,-0.660156 v 25.621093 c 0.222657,-0.109375 0.445313,-0.222656 0.664063,-0.339843 z m 0,0"
       id="path36" />
    <path
       style="fill:#0c0e11;fill-opacity:1;fill-rule:nonzero;stroke:none"
       d="m 37.070312,21.667969 h -0.9375 L 54.25,39.785156 c 0.08203,-0.234375 0.15625,-0.472656 0.226562,-0.710937 z m 0,0"
       id="path38" />
    <path
       style="fill:#d0ebee;fill-opacity:1;fill-rule:nonzero;stroke:none"
       d="m 30.039062,26.570312 c 0.515626,0.515626 0.09766,1.773438 -0.933593,2.808594 -1.035157,1.03125 -2.289063,1.449219 -2.808594,0.933594 -0.515625,-0.515625 -0.09766,-1.773438 0.9375,-2.804688 1.03125,-1.035156 2.289063,-1.453124 2.804687,-0.9375 z m 0,0"
       id="path40" />
  </g>
</svg>

<?xml version="1.0" encoding="UTF-8"?>
<svg xmlns="http://www.w3.org/2000/svg" xmlns:xlink="http://www.w3.org/1999/xlink" width="64px" height="64px" viewBox="0 0 64 64" version="1.1">
<g id="surface1">
<path style=" stroke:none;fill-rule:nonzero;fill:rgb(74.117649%,74.117649%,74.117649%);fill-opacity:1;" d="M 31.75 3.144531 C 47.824219 3.144531 60.855469 16.175781 60.855469 32.25 C 60.855469 48.324219 47.824219 61.355469 31.75 61.355469 C 15.675781 61.355469 2.644531 48.324219 2.644531 32.25 C 2.644531 16.175781 15.675781 3.144531 31.75 3.144531 Z M 31.75 3.144531 "/>
<path style=" stroke:none;fill-rule:nonzero;fill:rgb(25.882354%,25.882354%,25.882354%);fill-opacity:1;" d="M 31.75 19.019531 C 39.054688 19.019531 44.980469 24.945312 44.980469 32.25 C 44.980469 39.554688 39.054688 45.480469 31.75 45.480469 C 24.445312 45.480469 18.519531 39.554688 18.519531 32.25 C 18.519531 24.945312 24.445312 19.019531 31.75 19.019531 Z M 31.75 19.019531 "/>
<path style=" stroke:none;fill-rule:nonzero;fill:rgb(55.29412%,43.137255%,38.82353%);fill-opacity:1;" d="M 14.863281 15.492188 C 8.234375 22.121094 6.320312 31.625 9.121094 39.914062 L 39.285156 9.75 C 30.996094 6.949219 21.492188 8.863281 14.863281 15.492188 Z M 14.863281 15.492188 "/>
<path style=" stroke:none;fill-rule:nonzero;fill:rgb(55.29412%,43.137255%,38.82353%);fill-opacity:1;" d="M 7.957031 32.339844 C 7.957031 41.714844 13.324219 49.789062 21.167969 53.671875 L 21.167969 11.011719 C 13.324219 14.894531 7.957031 22.96875 7.957031 32.339844 Z M 7.957031 32.339844 "/>
<path style=" stroke:none;fill-rule:nonzero;fill:rgb(55.29412%,43.137255%,38.82353%);fill-opacity:1;" d="M 14.992188 49.136719 C 21.621094 55.765625 31.125 57.679688 39.414062 54.878906 L 9.25 24.714844 C 6.449219 33.003906 8.363281 42.507812 14.992188 49.136719 Z M 14.992188 49.136719 "/>
<path style=" stroke:none;fill-rule:nonzero;fill:rgb(55.29412%,43.137255%,38.82353%);fill-opacity:1;" d="M 31.839844 56.042969 C 41.214844 56.042969 49.289062 50.675781 53.171875 42.832031 L 10.511719 42.832031 C 14.394531 50.675781 22.46875 56.042969 31.839844 56.042969 Z M 31.839844 56.042969 "/>
<path style=" stroke:none;fill-rule:nonzero;fill:rgb(55.29412%,43.137255%,38.82353%);fill-opacity:1;" d="M 48.636719 49.007812 C 55.265625 42.378906 57.179688 32.875 54.378906 24.585938 L 24.214844 54.75 C 32.503906 57.550781 42.007812 55.636719 48.636719 49.007812 Z M 48.636719 49.007812 "/>
<path style=" stroke:none;fill-rule:nonzero;fill:rgb(55.29412%,43.137255%,38.82353%);fill-opacity:1;" d="M 55.542969 32.160156 C 55.542969 22.785156 50.175781 14.710938 42.332031 10.828125 L 42.332031 53.488281 C 50.175781 49.605469 55.542969 41.53125 55.542969 32.160156 Z M 55.542969 32.160156 "/>
<path style=" stroke:none;fill-rule:nonzero;fill:rgb(55.29412%,43.137255%,38.82353%);fill-opacity:1;" d="M 31.683594 8.375 C 29.117188 8.375 26.546875 8.789062 24.085938 9.621094 L 24.183594 9.714844 C 29.078125 8.085938 34.394531 8.097656 39.285156 9.75 L 31.75 17.28125 L 54.25 39.785156 C 57.050781 31.496094 55.136719 21.992188 48.507812 15.363281 C 43.847656 10.703125 37.765625 8.371094 31.683594 8.375 Z M 31.683594 8.375 "/>
<path style=" stroke:none;fill-rule:nonzero;fill:rgb(55.29412%,43.137255%,38.82353%);fill-opacity:1;" d="M 31.660156 8.457031 C 22.285156 8.457031 14.210938 13.824219 10.328125 21.667969 L 10.394531 21.667969 C 11.511719 19.441406 13 17.351562 14.863281 15.492188 C 21.492188 8.863281 30.996094 6.949219 39.285156 9.75 L 27.367188 21.667969 L 52.988281 21.667969 C 49.105469 13.824219 41.03125 8.457031 31.660156 8.457031 Z M 31.660156 8.457031 "/>
<path style=" stroke:none;fill-rule:nonzero;fill:rgb(25.882354%,25.882354%,25.882354%);fill-opacity:1;" d="M 28.027344 21.003906 L 27.367188 21.667969 L 52.988281 21.667969 C 52.878906 21.445312 52.765625 21.222656 52.648438 21.003906 Z M 28.027344 21.003906 "/>
<path style=" stroke:none;fill-rule:nonzero;fill:rgb(38.039216%,38.039216%,38.039216%);fill-opacity:1;" d="M 31.75 24.3125 C 36.132812 24.3125 39.6875 27.867188 39.6875 32.25 C 39.6875 36.632812 36.132812 40.1875 31.75 40.1875 C 27.367188 40.1875 23.8125 36.632812 23.8125 32.25 C 23.8125 27.867188 27.367188 24.3125 31.75 24.3125 Z M 31.75 24.3125 "/>
<path style=" stroke:none;fill-rule:nonzero;fill:rgb(25.882354%,25.882354%,25.882354%);fill-opacity:1;" d="M 21.167969 26.929688 L 21.167969 27.867188 L 39.285156 9.75 C 39.050781 9.667969 38.8125 9.59375 38.574219 9.523438 Z M 21.167969 26.929688 "/>
<path style=" stroke:none;fill-rule:nonzero;fill:rgb(25.882354%,25.882354%,25.882354%);fill-opacity:1;" d="M 20.503906 35.972656 L 21.167969 36.632812 L 21.167969 11.011719 C 20.945312 11.121094 20.722656 11.234375 20.503906 11.351562 Z M 20.503906 35.972656 "/>
<path style=" stroke:none;fill-rule:nonzero;fill:rgb(25.882354%,25.882354%,25.882354%);fill-opacity:1;" d="M 26.429688 42.832031 L 27.367188 42.832031 L 9.25 24.714844 C 9.167969 24.949219 9.09375 25.1875 9.023438 25.425781 Z M 26.429688 42.832031 "/>
<path style=" stroke:none;fill-rule:nonzero;fill:rgb(25.882354%,25.882354%,25.882354%);fill-opacity:1;" d="M 35.472656 43.496094 L 36.132812 42.832031 L 10.511719 42.832031 C 10.621094 43.054688 10.734375 43.277344 10.851562 43.496094 Z M 35.472656 43.496094 "/>
<path style=" stroke:none;fill-rule:nonzero;fill:rgb(25.882354%,25.882354%,25.882354%);fill-opacity:1;" d="M 42.332031 37.570312 L 42.332031 36.632812 L 24.214844 54.75 C 24.449219 54.832031 24.6875 54.90625 24.925781 54.976562 Z M 42.332031 37.570312 "/>
<path style=" stroke:none;fill-rule:nonzero;fill:rgb(25.882354%,25.882354%,25.882354%);fill-opacity:1;" d="M 42.996094 28.527344 L 42.332031 27.867188 L 42.332031 53.488281 C 42.554688 53.378906 42.777344 53.265625 42.996094 53.148438 Z M 42.996094 28.527344 "/>
<path style=" stroke:none;fill-rule:nonzero;fill:rgb(25.882354%,25.882354%,25.882354%);fill-opacity:1;" d="M 37.070312 21.667969 L 36.132812 21.667969 L 54.25 39.785156 C 54.332031 39.550781 54.40625 39.3125 54.476562 39.074219 Z M 37.070312 21.667969 "/>
<path style=" stroke:none;fill-rule:nonzero;fill:rgb(61.960787%,61.960787%,61.960787%);fill-opacity:1;" d="M 30.039062 26.570312 C 30.554688 27.085938 30.136719 28.34375 29.105469 29.378906 C 28.070312 30.410156 26.816406 30.828125 26.296875 30.3125 C 25.78125 29.796875 26.199219 28.539062 27.234375 27.507812 C 28.265625 26.472656 29.523438 26.054688 30.039062 26.570312 Z M 30.039062 26.570312 "/>
</g>
</svg>
